src/images/social/medium.svg

<svg height="100" viewBox="0 0 100 100" width="100" xmlns="http://www.w3.org/2000/svg"><path d="m11.9 26.5c.1-1.2-.3-2.4-1.3-3.3l-9.3-11.2v-1.7h29l22.4 49.1 19.7-49.1h27.6v1.7l-8 7.7c-.7.5-1 1.4-.9 2.2v56.2c-.1.9.2 1.7.9 2.3l7.8 7.7v1.7h-39.2v-1.8l8.1-7.8c.8-.8.8-1 .8-2.2v-45.5l-22.5 57h-3l-26.1-57v38.2c-.2 1.6.3 3.2 1.4 4.4l10.5 12.7v1.7h-29.8v-1.7l10.5-12.7c1.1-1.2 1.6-2.8 1.4-4.4z" fill="#1b1b1b"/></svg>

<?xml version="1.0" encoding="UTF-8"?>
<svg width="100px" height="100px" viewBox="0 0 100 100" version="1.1" xmlns="http://www.w3.org/2000/svg" xmlns:xlink="http://www.w3.org/1999/xlink">
    <!-- Generator: Sketch 55.1 (78136) - https://sketchapp.com -->
    <title>medium</title>
    <desc>Created with Sketch.</desc>
    <g id="medium" stroke="none" stroke-width="1" fill="none" fill-rule="evenodd">
        <path d="M11.9,26.5 C12,25.3 11.6,24.1 10.6,23.2 L1.3,12 L1.3,10.3 L30.3,10.3 L52.7,59.4 L72.4,10.3 L100,10.3 L100,12 L92,19.7 C91.3,20.2 91,21.1 91.1,21.9 L91.1,78.1 C91,79 91.3,79.8 92,80.4 L99.8,88.1 L99.8,89.8 L60.6,89.8 L60.6,88 L68.7,80.2 C69.5,79.4 69.5,79.2 69.5,78 L69.5,32.5 L47,89.5 L44,89.5 L17.9,32.5 L17.9,70.7 C17.7,72.3 18.2,73.9 19.3,75.1 L29.8,87.8 L29.8,89.5 L0,89.5 L0,87.8 L10.5,75.1 C11.6,73.9 12.1,72.3 11.9,70.7 L11.9,26.5 Z" id="Path" fill="#1B1B1B" fill-rule="nonzero"></path>
    </g>
</svg>
